X:12
T:Cook in the Kitchen/ Sixpenny Money
T: The Cook In The Kitchen
R: jig
M: 6/8
L: 1/8
K: Gmaj
|: E | DGG GFG | =FDE ~F3 | DGG GFG | A2 d cAG |
DGG GFG | =FDE F2 d | cAG FGA | BGG G2 :||
|: A | ~B3 BAG | ~A3 AGF | ~G3 GFG | A2 d cAG |
~B3 BAG | ~A3 A2 d | cAG FGA | BGG G2 :||
|: B | d2 e f2 g | a2 g fed | cAG FGA | B/c/dB cAG |
d2 e f2 g | a2 g fed | cAG FGA | BGG G2 :||
T: Sixpenny Money
R: jig
M: 6/8
L: 1/8
K: Dmaj
fAA fAA|BAG FGE|DED AFA|dfd efg|
FAA FAA|BAG FGE|DED AFA|dfd e2 d:||
fef gfg|afd ede|fef gfg|afd e2 d|
fef gfg|afd fga|ABA AFA|dfd e2 d:||

